X:1
T:Alma Redemptoris - Anerio
T:#
%%score [ 1 2 3 4 ]
L:1/8
Q:1/4=130
M:none
K:F
V:1 treble nm="Soprano" snm="S"
V:2 treble nm="Alto" snm="A"
V:3 treble-8 nm="Tenor" snm="T"
V:4 bass nm="Bass" snm="B"
V:1
 x16 ||"^Alma Redemptoris Mater II""^Felice Anerio\n(1560-1614)"[Q:1/4=200] c8 c8 | F8 G8 | %3
w: |Re- dem-|pto- ris|
 (A8 B6 A2 | G8) F8 || c16 || f8 e8 | d4 A4 (c8 | d8) c8- | c8 z8 || c16 || c8 z8 | z16 | %13
w: Ma\- * *|* ter,|quae~pervia|coe- li|por- ta ma\-|* nes,||et~stella~ma-|ris,||
 e8 f4 f2 e2 | (d12 c2 B2 | d8) A8 ||[M:3/1][Q:1/4=400] =B12 B4 B8 | =B8 c8 c8 || %18
w: suc- cur- re ca-|den\- * *|* ti,|sur- ge- re|qui cu- rat|
[Q:1/4=200] d6 d2 d8 | z4 d8 c4 | B4 A4 c8 | c4 G4 A8 | A4 c4 =B8 | =B8 || c16 || (A6 B2 c4) d4 | %26
w: po- pu- lo:|tu quae|ge- nu- i-|sti, na- tu-|ra mi- ran-|te,|tuum~sanctum|Ge\- * * ni-|
 B8 A8 | z4 f8 e4 | d8 c8 | z4 c8 c4 | A4 =B4 c8 || c16 || (=B6 c2 d4) c4 | c8 =B8 | G8 (d8 | %35
w: to- rem,|Vir- go|pri- us|ac po-|ste- ri- us,|Gabrie-|lis * * ab|o- re|su- mens|
 e8) (c6 d2 | e2 f2 g6 f2 f4- | f4) e8 (d4- | d4 ^c4) d8 ||[M:3/1][Q:1/4=400] f16 e8 | d16 c8 | %41
w: * il\- *||* lud A\-|* * ve|pec- ca-|to- rum|
 c16 c8 | (=B12 A4 B8) | c16 z8 | c16 B8 | A16[Q:1/4=395] G8 |[Q:1/4=381] d16[Q:1/4=368] c8 | %47
w: mi- se-|re\- * *|re,|pec- ca-|to- rum|mi- se-|
[Q:1/4=351] c24 |[Q:1/4=340] A24 |] %49
w: re-|re.|
V:2
 x16 || F8 E8 | D12 E4 | (F2 G2 A2 F2 G2 F2 F4- | F4 E4) F8 || F16 || A16 | A16 | B12 A4 | G8 A8 || %10
w: |Re- dem-|pto- ris|Ma\- * * * * * *|* * ter|quae~pervia|coe-|li|por- ta|ma- nes,|
 G16 || G4 G4 c4 c2 B2 | (A12 G4) | A8 z4 A4 | B4 B2 A2 (G8- | G4 ^F2 E2 F4) F4 || %16
w: et~stella~ma-|ris, suc- cur- re ca-|den\- *|ti, suc-|cur- re ca- den\-|* * * * ti,|
[M:3/1] G12 G4 G8 | G8 G8 A8 || B6 B2 B8 | z4 A8 A4 | F4 F4 G8 | G8 z4 C4 | F4 F2 E2 G8 | G8 || %24
w: sur- ge- re|qui cu- rat|po- pu- lo:|tu quae|ge- nu- i-|sti, na-|tu- ra mi- ran-|te,|
 G16 || z4 c4 A4 (F4- | F4 E4) F8 | A8 A4 (A4- | A4 G4) A8 | z4 A4 G4 A4- | A4 F4 G8 || G16 || %32
w: tuum~sanctum|Ge- ni- to\-|* * rem,|Vir- go pri\-|* * us|ac po- ste\-|* ri- us,|Gabrie-|
 G12 E4 | C8 D8 | D16 | (G8 A8) | (G6 A2 B4) A4 | A16- | A8 ^F8 ||[M:3/1] A16 A8 | (F8 G8) A8 | %41
w: lis ab|o- re|su-|mens *|il\- * * lud|A\-|* ve|pec- ca-|to\- * rum|
 A8 c8 G8 | G24- | G24 | G16 G8 | E16 E8 | A8 A8 (F8- | F8 E4 D4 E8) | F24 |] %49
w: mi- se- re-|re,||pec- ca-|to- rum|mi- se- re\-||re.|
V:3
 x16 || c16 | d4 f8 e4 | (d2 c2 c4) (B8 | c8) z8 || A16 || (d12 ^c4) | d4 f8 e4 | (f4 g6 f2 f4- | %9
w: |Re-|dem- pto- ris|Ma\- * * ter,||quae~pervia|coe\- *|li por- ta|ma\- * * *|
 f4 e4) f8 || e16 || e12 e4 | f4 f2 e2 d8 | ^c4 c4 d4 d2 =c2 | (B12 A2 G2 | A8) d8 || %16
w: * * nes,|et~stella~ma-|ris, suc-|cur- re ca- den-|ti, suc- cur- re ca-|den\- * *|* ti,|
[M:3/1] d12 d4 d8 | d8 e8 f8 || f6 f2 f8 | f8 e8 | d4 d4 e8 | e4 e4 f8 | c4 c4 d8 | d8 || e16 || %25
w: sur- ge- re|qui cu- rat|po- pu- lo:|tu quae|ge- nu- i-|sti, na- tu-|ra mi- ran-|te,|tuum~sanctum|
 f8 f8 | g8 c8 | z4 d8 ^c4 | d8 e8 | z4 f8 e4 | f4 d4 e8 || e16 || d8 G4 (g4- | g4 ^f4) g8 | =B16 | %35
w: Ge- ni-|to- rem,|Vir- go|pri- us|ac po-|ste- ri- us,|Gabrie-|lis ab o\-|* * re|su-|
 c16 | z4 e4 f4 d4- | d4 ^c4 (f8 | e8) d8 ||[M:3/1][K:treble-8] z8 f8 c8 | d8 d8 f8- | f8 e16 | %42
w: mens|su- mens il\-|* lud A\-|* ve|pec- ca-|to- rum mi\-|* se-|
 d24 | c24 | e16 d8 | c16 c8 | F16 A8 | G24 | F24 |] %49
w: re-|re,|pec- ca-|to- rum|mi- se-|re-|re.|
V:4
 F,2 A,2 B,2 C2 A,2 G,2 A,4 || F,8 A,8 | B,8 G,8 | F,8 B,,8 | z16 || F,16 || D,8 A,8 | D8 (C8 | %8
w: Al\- * * * ma * *|Re- dem-|pto- ris|Ma- ter,||quae~pervia|coe- li|por- ta|
 B,8) C8- | C8 F,8 || C,16 || C,12 C4 | D4 D2 C2 B,8 | A,8 D,8 | G,4 G,2 F,2 _E,8 | D,16 || %16
w: * ma\-|* nes,|et~stella~ma-|ris, suc-|cur- re ca- den-|ti, suc-|cur- re ca- den-|ti,|
[M:3/1] G,12 G,4 G,8 | G,8 C8 F,8 || B,6 B,2 B,8 | D8 A,8 | B,4 D4 C8 | C4 C,4 F,8 | F,4 A,4 G,8 | %23
w: sur- ge- re|qui cu- rat|po- pu- lo:|tu quae|ge- nu- i-|sti, na- tu-|ra mi- ran-|
 G,8 || C16 || (F,6 G,2 A,4) B,4 | G,8 F,8 | D,8 A,8 | B,8 A,8 | F,8 C8 | D4 D4 C8 || C16 || %32
w: te,|tuum~sanctum|Ge\- * * ni-|to- rem,|Vir- go|pri- us|ac po-|ste- ri- us,|Gabrie-|
 (G,6 A,2 =B,4) C4 | A,8 G,8 | G,16 | C,8 (F,2 G,2 A,2 B,2 | C8 D8) | A,8 (F,6 G,2 | A,8) D,8 || %39
w: lis * * ab|o- re|su-|mens il\- * * *||lud A\- *|* ve|
[M:3/1] D16 A,8 | B,16 F,8 | A,16 C8 | G,24 | C,24 | C16 G,8 | A,16 E,8 | D,16 F,8 | C,24 | F,24 |] %49
w: pec- ca-|to- rum|mi- se-|re-|re,|pec- ca-|to- rum|mi- se-|re-|re.|

